icon-themes/breeze_svg/cmd/lc_mergecells.svg

<svg viewBox="0 0 24 24" xmlns="http://www.w3.org/2000/svg"><path d="m4 4v1 15h1 14 1v-15-1zm1 1h4v1 1h-1-3zm5 0h4v1 1h-4v-1zm5 0h4v2h-3-1v-1zm-10 3h3 1v2h-4zm5 0h4 1 2 2v8.099609h-2-2-1-4v-2.099609-1zm-5 3h4v2h-4zm0 3h4v2.099609h-1-3zm0 3.099609h3 1v1 .900391h-4zm5 0h4v1 .900391h-4v-.900391zm5 0h1 3v1.900391h-4v-.900391z" fill="#4d4d4d"/></svg>

<svg xmlns="http://www.w3.org/2000/svg" viewBox="0 0 24 24">
 <path 
     style="fill:#4d4d4d" 
     d="M 4 4 L 4 5 L 4 20 L 5 20 L 19 20 L 20 20 L 20 5 L 20 4 L 4 4 z M 5 5 L 9 5 L 9 6 L 9 7 L 8 7 L 5 7 L 5 5 z M 10 5 L 14 5 L 14 6 L 14 7 L 10 7 L 10 6 L 10 5 z M 15 5 L 19 5 L 19 7 L 16 7 L 15 7 L 15 6 L 15 5 z M 5 8 L 8 8 L 9 8 L 9 10 L 5 10 L 5 8 z M 10 8 L 14 8 L 15 8 L 17 8 L 19 8 L 19 16.099609 L 17 16.099609 L 15 16.099609 L 14 16.099609 L 10 16.099609 L 10 14 L 10 13 L 10 8 z M 5 11 L 9 11 L 9 13 L 5 13 L 5 11 z M 5 14 L 9 14 L 9 16.099609 L 8 16.099609 L 5 16.099609 L 5 14 z M 5 17.099609 L 8 17.099609 L 9 17.099609 L 9 18.099609 L 9 19 L 5 19 L 5 17.099609 z M 10 17.099609 L 14 17.099609 L 14 18.099609 L 14 19 L 10 19 L 10 18.099609 L 10 17.099609 z M 15 17.099609 L 16 17.099609 L 19 17.099609 L 19 19 L 15 19 L 15 18.099609 L 15 17.099609 z "
     />
 </svg>
